X: 33305
T: Quadrille Franco-Américain
R: jig
M: 6/8
K: Dmajor
a|:a2f efg|faf d2f|e2c ABc|efe e2a|
a2f efg|faf d2f|e2c ABc|1 dfe d2a:|2 dfe d2A||
|:dcd f2A|BGB e2d|cdc ABc|efe e2A|
dcd f2A|BGB e2d|cdc ABc|1 dfe d2A:|2 dfe d2a||

